X:1
T:Title
%%score ( 1 2 ) ( 3 4 )
L:1/8
Q:1/4=68
M:9/8
K:F
V:1 treble nm="Strings 1, Soprano"
V:2 treble 
V:3 bass nm="Strings 1, Bass"
V:4 bass 
V:1
 z3 z3 C[CF][FA] | [Fc]3- [Fc]2 [Fc]/[Fc]/ dc[FA] | c3 .A3 [Fc][FA]F | %3
 [EG]3- [EG]2 [EG] [EG][FA][CG] | [CF]3 C3 C[CF][FA] | [Fc]3- [Fc]2 [Fc]/[Fc]/ dcF | %6
 [FA]6 [DG][DF][B,D] | z3 z3 .G3 |[M:6/8] [CF]6 | .c6 | c6 | .d6 | c6 | [CF][CF][CF] [EG][EG][EG] | %14
 .A3 z3 | [Fc]F[EB] [CA][A,C][CG] | [CF]3 z3 |] %17
V:2
 x9 | z3 z3 .F3 | F6 z3 | x9 | x9 | z3 z3 .F3 | x9 | [A,C]3 [CF]3 C-[CA][CG] |[M:6/8] x6 | %9
 FFF F[FA]F | EFG .F3 | FFF F[FB][FG] | FFE .F3 | x6 | F-[FG]F [Fd]3 | x6 | x6 |] %17
V:3
 z3 z3 [F,A,][F,A,][F,C] | [F,A,]3- [F,A,]2 [F,A,]/[F,A,]/ B,A,F, | A,3 .C3 [F,A,][F,C][F,A,] | %3
w: 1.~Wan d'ring~ a|far~ * from~ my~ home~ * a|bove,~ * Far~ from~ the~|
 [C,B,]3- [C,B,]2 [C,B,] B,C[C,B,] | [F,A,]6 [F,A,][F,A,][F,C] | %5
w: Sav * ior's~ arms~ * of~|love;~ Bar ren~ the~|
 [F,A,]3- [F,A,]2 [F,A,]/[F,A,]/ B,A,[F,A,] | [F,C]6 [B,,B,][B,,B,][B,,F,] | %7
w: fields~ * I~ am~ feed * ing~|in,~ Walk ing~ the~|
 [C,F,]3 [C,A,]3 B,C[C,B,] |[M:6/8] [F,,F,A,]6 | [F,A,][F,A,][F,A,] [F,A,][F,C][F,A,] | %10
w: down ward~ paths~ * of~|sin.~||
 [C,G,][C,A,][C,B,] .[F,A,]3 | [B,,B,][B,,B,][B,,B,] B,[B,D][B,D] | [A,C][A,C][G,B,] .[F,A,]3 | %13
w: |||
 [F,A,][F,A,][F,A,] [C,C][C,C][C,C] | CB,[F,A,] [B,,B,]3 | [C,A,][C,A,][C,G,] [C,F,][C,F,][C,A,] | %16
w: |||
 [F,,F,A,]3 z3 |] %17
w: |
V:4
 x9 | z3 z3 .F,3 | F,6 z3 | z3 z3 .C,3 | x9 | z3 z3 .F,3 | x9 | z3 z3 .C,3 |[M:6/8] x6 | x6 | x6 | %11
 x6 | x6 | x6 | .F,3 z3 | x6 | x6 |] %17

